X:1
T: Shelah O'Neal
C:James Boswell
R:Jig
Q:180
K:F
M:6/8
L:1/16
|:C2|F2G2A2 c2f2d2|c2A2F2 G2E2C2|F2G2A2 c2f2d2|c2A2c2 F4C2|
F2G2A2 c2f2d2|c2A2F2 G2E2C2|F2G2A2 c2f2d2|c2A2c2 F4c2|
f2e2d2 c2B2A2|f2e2f2 c2B2A2|f2e2d2 c2B2A2|G3FGA D4CD|
F2F2F2 A2F2A2|c2A2c2 f4fg|a2bagf d2e2f2|c2A2c2 F4:|
